X:1
T:’Tis Burning in My Soul
T:William James Kirkpatrick
T:’Tis Burning in My Soul
T:Public Domain
T:Public Domain
C:William James Kirkpatrick
Z:Public Domain
%%score ( 1 2 ) ( 3 4 )
L:1/8
M:4/4
K:C
V:1 treble 
V:2 treble 
V:3 bass 
V:4 bass 
V:1
 C | [CE][CE][CE][DF] [EG]3 [EG] | [FA][Ac] [Ac]>[FA] [EG]3 [DF] | [CE][CE][CE][DF] [EG]3 [FA] | %4
w: 1.~God|His might- y pow’r To this|poor, sin- ful heart, To keep|me ev- ’ry hour, And need-|
w: 2.~Be-|the cross I bow, Up- on|the al- tar lay A will-|ing of- f’ring now, My all|
w: 3.~No|that I have done, His prom-|ise I em- brace; Ac- cept-|ed in the Son, He saves|
 [EG][CE][B,D][A,C] [B,D]3 C | [CE][CE][CE][DF] [EG]3 [EG] | [FA][Ac] [Ac]>[FA] [EG]3 [EG] | %7
w: ful grace im- part; And since|Spir- it came, To take su-|preme con- trol, The love- en-|
w: from day to day. My Sav-|paid the price, My name He|sweet- ly calls; Up- on the|
w: me by His grace. All glor-|be to God! Let hal- le-|lu- jahs roll; His love is|
 [CE][EG][Ec][Fd] [Ge]3 [Gd] | [Fd][Fd][DB][DB] [Ec]3 ||"^Refrain" [EG] | %10
w: kin- dled flame Is burn- ing|in my soul. ’Tis burn-|ing|
w: sac- ri- fice The fire from|Heav- en falls. * *||
w: shed a- broad, The fire is|in my soul. * *||
 [CE][EG] [Ec]>[Fd] [Ec]3 [GB] | [FA][Fd] [Fc]>[FA] [EG]3 [EG] | %12
w: in my soul, ’Tis burn- ing|in my soul; The fire of|
w: ||
w: ||
 [CE][EG][Gc][Gd] [Ge][Ge][Ec][Ge] | [Gd]2 [^Fd]2 [=Fd]3 G | [CE][EG] [Ec]>[Fd] [Ec]3 [GB] | %15
w: heav- ’nly love is burn- ing in my|soul, The Ho- ly|it came, All glor- y to|
w: |||
w: |||
 [FA][Fd] [Fc]>[FA] [EG]3 [EG] | [CE][EG][Gc][Gd] [Ge][Ge][Ec][Ec] | [Fd]2 [FB]2 [Ec]3 |] %18
w: His name! The fire of heav-|’nly love is burn- ing in my soul.||
w: |||
w: |||
V:2
 C | x8 | x8 | x8 | x7 C | x8 | x8 | x8 | x7 || x | x8 | x8 | x8 | x7 G | x8 | x8 | x8 | x7 |] %18
w: sent||||His|||||||||Spir-|||||
w: fore||||ior||||||||||||||
w: good||||y||||||||||||||
V:3
 [C,E,] | [C,G,][C,G,][C,G,][C,G,] [C,C]3 [C,C] | [F,C][F,C] [F,C]>[F,C] [F,C]3 [C,G,] | %3
w: ~|~ ~ ~ ~ ~ ~|~ ~ ~ ~ ~ ~|
 [C,G,][C,G,][C,G,][C,G,] [C,C]3 [C,C] | [C,C][C,G,][D,G,][D,^F,] [G,,G,]3 [C,E,] | %5
w: ~ ~ ~ ~ ~ ~|~ ~ ~ ~ ~ ~|
 [C,G,][C,G,][C,G,][C,G,] [C,C]3 [C,C] | [F,C][F,C] [F,C]>[F,C] [C,C]3 [C,C] | %7
w: ~ ~ ~ ~ ~ ~|~ ~ ~ ~ ~ ~|
 [C,G,][C,C][C,G,][C,G,] [C,C]3 [E,C] | [F,A,][F,A,]G,G, [C,G,]3 || [C,G,] | %10
w: ~ ~ ~ ~ ~ ~|~ ~ ~ ~ ~|~|
 [C,G,][C,G,] [C,G,]>[C,G,] [C,G,]3 [E,C] | [F,C][F,A,] [F,A,]>[F,C] [C,C]3 [C,G,] | %12
w: ~ ~ ~ ~ ~ ~|~ ~ ~ ~ ~ ~|
 [C,G,][C,C][E,C][G,B,] CC[C,G,][C,C] | [D,B,][D,B,][D,B,][D,B,] [G,B,]3 [G,,G,] | %14
w: ~ ~ ~ ~ ~ ~ burn- ing|soul, ~ ~ ~ ~ ~|
 [C,G,][C,C] [C,G,]>[C,G,] [C,G,]3 [E,C] | [F,C][F,A,] [F,A,]>[F,C] [C,C]3 [C,G,] | %16
w: ~ ~ ~ ~ ~ ~|~ ~ ~ ~ ~ ~|
 [C,G,][C,C][E,C][G,B,] CC[C,G,][C,G,] | [F,A,][F,D][F,D][F,D] [C,G,C]3 |] %18
w: ~ ~ ~ ~ burn- ing in my||
V:4
 x | x8 | x8 | x8 | x8 | x8 | x8 | x8 | x2 G,G, x3 || x | x8 | x8 | x4 CC x2 | x8 | x8 | x8 | %16
w: ||||||||~ ~||||in my||||
 x4 CC x2 | x7 |] %18
w: soul. *||

